!!!SOCIAL_FUNCTION:	songs of the drum religion
!!!PDT:	1932
!!!OTL: No_97_Song_for_Leaders_of_the_Ceremony_(b).krn
!!!REG: Wisconsin
!!!LANG: Non-Tone
!!!LING_GROUP: Algonquin
**kern
*staff1
=1-
*clefF4
*k[f#c#g#d#a#]
*M3/8
4r
8B\
=2
4d#\
8c#\
=3||
*M2/4
8B\L
8B\J
8.B\L
16B\Jk
=4
2B\
=5||
*M3/8
8B\L
16F#\Jk
16r
8c#\
=6
4d#\
8c#\
=7!|:
*M2/4
8B\L
8B\J
8.B\L
16B\Jk
=8||
*M3/4
4.B\
8B\
4B\
=9||
*M2/4
16B\LL
16F#\
16F#\
16F#\JJ
8B\L
8F#\J
=10
8D#/L
8BB/J
4BB/
=11
16F#/LL
16BB/
16BB/
16BB/JJ
8D#/L
8BB/J
=12
8BB/L
8BB/J
8BB/L
8BB/J
=13
2BB/
=14
4BB/
4r
==:|!
*-
